!!!OTL: DIE WELT TUT IHRE AUGEN ZU
!!!ARE: Europa, Mitteleuropa, Deutschland
!!!SCT: F0348
!!!YEM: Copyright 1995, estate of Helmut Schaffrath.
**kern
*ICvox
*Ivox
*M6/8
*k[]
*C:
{8E
=1
4G
8D
4E
8c
=2
4e
8B
4c}
{8E
=3
4G
8D
4G
8D
=4
2E
8r}
{8E
=5
4G
8D
4E
8c
=6
4e
8B
4c}
{8E
=7
4G
8D
4G
8D
=8
2C
8r}
{16C
16D
=9
4E
8F
4E
8G#
=10
4A
8B
4A}
{8c
=11
8e
8B
8G
8B
8F#
8G
=12
2E
8r}
{8G
=13
4G
8D
4E
8c
=14
4c
8G
4A}
{8A
=15
4A
8G
4A
8B
=16
4.c
4r}
==
!!!AGN: Jugend - Lied, Lob - Lied, religioes, Tageszeiten, Abend
!!!ONB: ESAC (Essen Associative Code) Database: FINK
!!!AMT: compound duple
!!!AIN: vox
!!!EED: Helmut Schaffrath
!!!EEV: 1.0
*-
